packages/react/src/components/base/Icon/assets/icon-shopping-cart.svg

<svg width="24" height="24" viewBox="0 0 24 24" xmlns="http://www.w3.org/2000/svg" fill="currentColor"> <path d="M22.2383 5.65455C22.1328 5.52809 22.0007 5.42636 21.8515 5.35654C21.7023 5.28672 21.5396 5.25052 21.3749 5.25049H6.56238L6.04956 2.42393C6.00239 2.16487 5.86584 1.93058 5.6637 1.76184C5.46155 1.5931 5.20663 1.50062 4.94332 1.50049H2.62488C2.32651 1.50049 2.04036 1.61901 1.82938 1.82999C1.6184 2.04097 1.49988 2.32712 1.49988 2.62549C1.49988 2.92386 1.6184 3.21001 1.82938 3.42098C2.04036 3.63196 2.32651 3.75049 2.62488 3.75049H4.00394L6.33925 16.5942C6.40195 16.9354 6.53164 17.2607 6.72082 17.5514C6.38589 17.9433 6.1576 18.4149 6.05796 18.9207C5.95833 19.4265 5.99071 19.9494 6.15198 20.439C6.31325 20.9287 6.59797 21.3685 6.97869 21.7161C7.3594 22.0636 7.82325 22.3072 8.32551 22.4234C8.82776 22.5395 9.35147 22.5243 9.84612 22.3791C10.3408 22.234 10.7897 21.9638 11.1495 21.5947C11.5094 21.2256 11.768 20.7699 11.9006 20.2717C12.0331 19.7736 12.035 19.2496 11.9061 18.7505H15.0936C14.9372 19.3562 14.9741 19.9957 15.1991 20.5794C15.4241 21.1632 15.8259 21.662 16.3484 22.006C16.8709 22.3501 17.4879 22.5222 18.113 22.4983C18.7382 22.4744 19.3402 22.2556 19.8349 21.8727C20.3296 21.4897 20.6921 20.9616 20.8719 20.3624C21.0516 19.7632 21.0395 19.1228 20.8373 18.5308C20.6351 17.9388 20.2529 17.4248 19.7441 17.0607C19.2353 16.6967 18.6255 16.5008 17.9999 16.5005H8.92206C8.83439 16.5004 8.74953 16.4696 8.68222 16.4134C8.61491 16.3572 8.56941 16.2792 8.55363 16.193L8.33613 15.0005H18.7593C19.3741 15.0005 19.9695 14.7846 20.4415 14.3906C20.9136 13.9965 21.2323 13.4492 21.3421 12.8442L22.4821 6.57611C22.5114 6.41403 22.5047 6.24748 22.4626 6.08824C22.4205 5.929 22.3439 5.78095 22.2383 5.65455ZM9.74988 19.5005C9.74988 19.6488 9.70589 19.7938 9.62348 19.9172C9.54107 20.0405 9.42393 20.1366 9.28689 20.1934C9.14985 20.2502 8.99905 20.265 8.85356 20.2361C8.70807 20.2071 8.57444 20.1357 8.46955 20.0308C8.36466 19.9259 8.29323 19.7923 8.26429 19.6468C8.23535 19.5013 8.2502 19.3505 8.30697 19.2135C8.36373 19.0764 8.45986 18.9593 8.5832 18.8769C8.70654 18.7945 8.85154 18.7505 8.99988 18.7505C9.19879 18.7505 9.38955 18.8295 9.53021 18.9702C9.67086 19.1108 9.74988 19.3016 9.74988 19.5005ZM17.9999 20.2505C17.8515 20.2505 17.7065 20.2065 17.5832 20.1241C17.4599 20.0417 17.3637 19.9245 17.307 19.7875C17.2502 19.6505 17.2353 19.4997 17.2643 19.3542C17.2932 19.2087 17.3647 19.075 17.4695 18.9702C17.5744 18.8653 17.7081 18.7938 17.8536 18.7649C17.999 18.736 18.1498 18.7508 18.2869 18.8076C18.4239 18.8643 18.5411 18.9605 18.6235 19.0838C18.7059 19.2071 18.7499 19.3522 18.7499 19.5005C18.7499 19.6994 18.6709 19.8902 18.5302 20.0308C18.3896 20.1715 18.1988 20.2505 17.9999 20.2505ZM19.1249 12.443C19.1092 12.5288 19.0641 12.6064 18.9974 12.6625C18.9306 12.7186 18.8464 12.7497 18.7593 12.7505H7.92738L6.973 7.50049H20.0268L19.1249 12.443Z"/> </svg>

<svg viewBox="0 0 24 24" xmlns="http://www.w3.org/2000/svg" aria-hidden="true" fill="currentColor"><path d="M22.238 5.655a1.12 1.12 0 0 0-.863-.405H6.562L6.05 2.424A1.125 1.125 0 0 0 4.943 1.5H2.625a1.125 1.125 0 1 0 0 2.25h1.379l2.335 12.844c.063.341.193.667.382.957a3 3 0 1 0 5.185 1.2h3.188A3 3 0 1 0 18 16.5H8.922a.375.375 0 0 1-.368-.308L8.336 15H18.76a2.625 2.625 0 0 0 2.583-2.156l1.14-6.268a1.13 1.13 0 0 0-.244-.921M9.75 19.5a.75.75 0 1 1-1.5 0 .75.75 0 0 1 1.5 0m8.25.75a.75.75 0 1 1 0-1.5.75.75 0 0 1 0 1.5m1.125-7.807a.375.375 0 0 1-.366.308H7.927L6.973 7.5h13.054z"/></svg>
